X: 357
T: The Straw Bonnett
%R: strathspey, reel
Z: 2014 John Chambers <jc:trillian.mit.edu>
B: Preston "Twenty four Country Dances for the Year 1799" p.159 #1
F: http://www.vwml.org/browse/browse-collections-dance-tune-books/browse-prestons1799# 2014-8-10
M: C|
L: 1/8
K: A
E |\
A>BA>B (c/B/A) eA | ceAc B>cBE |\
A>BAB c/B/A eA | ceBc A>BA :|
|: e |\
ecfd ec{de}f2 | eaec B>cBE |\
ecfd ec{de}f2 | eaec A>BA :|
|: !p!B |\
cBAG AFEC | EAdc {c}B3B |\
cBAG AFEC | EdcB B2A :|
% - - - - - - - - - - - - - - - - - - - - - - - - -
%%begintext align
%% Change sides .| and back again :| lead
%% down the middle two Cu: :|. lead up
%% again & cast off :|: swing Corners :||
%%endtext
% - - - - - - - - - - - - - - - - - - - - - - - - -

%%sep 1 1 500
%%sep 1 1 500
